assets/icons/qvision/receipt.svg

<svg xmlns="http://www.w3.org/2000/svg" height="24" viewBox="0 0 24 24" width="24"><path d="M0 0h24v24H0z" fill="none"/><path d="M18 17H6v-2h12v2zm0-4H6v-2h12v2zm0-4H6V7h12v2zM3 22l1.5-1.5L6 22l1.5-1.5L9 22l1.5-1.5L12 22l1.5-1.5L15 22l1.5-1.5L18 22l1.5-1.5L21 22V2l-1.5 1.5L18 2l-1.5 1.5L15 2l-1.5 1.5L12 2l-1.5 1.5L9 2 7.5 3.5 6 2 4.5 3.5 3 2v20z"/></svg>

<svg width="24" height="24" viewBox="0 0 24 24" fill="none" xmlns="http://www.w3.org/2000/svg">
<g clip-path="url(#clip0_147_4614)">
<path d="M18 17H6V15H18V17ZM18 13H6V11H18V13ZM18 9H6V7H18V9ZM3 22L4.5 20.5L6 22L7.5 20.5L9 22L10.5 20.5L12 22L13.5 20.5L15 22L16.5 20.5L18 22L19.5 20.5L21 22V2L19.5 3.5L18 2L16.5 3.5L15 2L13.5 3.5L12 2L10.5 3.5L9 2L7.5 3.5L6 2L4.5 3.5L3 2V22Z" fill="#323232"/>
</g>
<defs>
<clipPath id="clip0_147_4614">
<rect width="24" height="24" fill="white"/>
</clipPath>
</defs>
</svg>
